round/svg/http.svg

<svg xmlns="http://www.w3.org/2000/svg" width="24" height="24"><path opacity=".87" fill="none" d="M24 24H0V0h24v24z"/><path d="M4.5 11h-2V9.75c0-.41-.34-.75-.75-.75S1 9.34 1 9.75v4.5c0 .41.34.75.75.75s.75-.34.75-.75V12.5h2v1.75c0 .41.34.75.75.75s.75-.34.75-.75v-4.5C6 9.34 5.66 9 5.25 9s-.75.34-.75.75V11zm3.25-.5h.75v3.75c0 .41.34.75.75.75s.75-.34.75-.75V10.5h.75c.41 0 .75-.34.75-.75S11.16 9 10.75 9h-3c-.41 0-.75.34-.75.75s.34.75.75.75zm5.5 0H14v3.75c0 .41.34.75.75.75s.75-.34.75-.75V10.5h.75c.41 0 .75-.34.75-.75S16.66 9 16.25 9h-3c-.41 0-.75.34-.75.75s.34.75.75.75zM21.5 9H19c-.55 0-1 .45-1 1v4.25c0 .41.34.75.75.75s.75-.34.75-.75V13h2c.83 0 1.5-.68 1.5-1.5v-1c0-.82-.67-1.5-1.5-1.5zm0 2.5h-2v-1h2v1z" fill="currentColor"/></svg>

<?xml version="1.0" encoding="utf-8"?>
<!-- Generator: Adobe Illustrator 19.1.0, SVG Export Plug-In . SVG Version: 6.00 Build 0)  -->
<svg version="1.1" xmlns="http://www.w3.org/2000/svg" xmlns:xlink="http://www.w3.org/1999/xlink" x="0px" y="0px" width="24px"
	 height="24px" viewBox="0 0 24 24" enable-background="new 0 0 24 24" xml:space="preserve">
<g id="Header_x2F_BG" display="none">
	<rect x="-50" y="-50" display="inline" fill="#F1F1F2" width="520" height="520"/>
</g>
<g id="Bounding_Boxes">
	<g id="ui_x5F_spec_x5F_header_copy_3" display="none">
	</g>
	<path opacity="0.87" fill="none" d="M24,24H0V0h24V24z"/>
</g>
<g id="Rounded" fill="currentColor">
	<g id="ui_x5F_spec_x5F_header_copy_5" display="none">
	</g>
	<path d="M4.5,11h-2V9.75C2.5,9.34,2.16,9,1.75,9h0C1.34,9,1,9.34,1,9.75v4.5C1,14.66,1.34,15,1.75,15h0c0.41,0,0.75-0.34,0.75-0.75
		V12.5h2v1.75C4.5,14.66,4.84,15,5.25,15h0C5.66,15,6,14.66,6,14.25v-4.5C6,9.34,5.66,9,5.25,9h0C4.84,9,4.5,9.34,4.5,9.75V11z
		 M7.75,10.5H8.5v3.75C8.5,14.66,8.84,15,9.25,15h0C9.66,15,10,14.66,10,14.25V10.5h0.75c0.41,0,0.75-0.34,0.75-0.75v0
		C11.5,9.34,11.16,9,10.75,9h-3C7.34,9,7,9.34,7,9.75v0C7,10.16,7.34,10.5,7.75,10.5z M13.25,10.5H14v3.75
		c0,0.41,0.34,0.75,0.75,0.75h0c0.41,0,0.75-0.34,0.75-0.75V10.5h0.75c0.41,0,0.75-0.34,0.75-0.75v0C17,9.34,16.66,9,16.25,9h-3
		c-0.41,0-0.75,0.34-0.75,0.75v0C12.5,10.16,12.84,10.5,13.25,10.5z M21.5,9H19c-0.55,0-1,0.45-1,1v4.25c0,0.41,0.34,0.75,0.75,0.75
		l0,0c0.41,0,0.75-0.34,0.75-0.75V13h2c0.83,0,1.5-0.68,1.5-1.5v-1C23,9.68,22.33,9,21.5,9z M21.5,11.5h-2v-1h2V11.5z"/>
</g>
<g id="Sharp" display="none">
	<g id="ui_x5F_spec_x5F_header_copy_4">
	</g>
	<path display="inline" d="M4.5,11h-2V9H1v6h1.5v-2.5h2V15H6V9H4.5V11z M7,10.5h1.5V15H10v-4.5h1.5V9H7V10.5z M12.5,10.5H14V15h1.5
		v-4.5H17V9h-4.5V10.5z M23,9h-5v6h1.5v-2H23V9z M21.5,11.5h-2v-1h2V11.5z"/>
</g>
<g id="Outline" display="none">
	<g id="ui_x5F_spec_x5F_header">
	</g>
	<path display="inline" d="M4.5,11h-2V9H1v6h1.5v-2.5h2V15H6V9H4.5V11z M7,10.5h1.5V15H10v-4.5h1.5V9H7V10.5z M12.5,10.5H14V15h1.5
		v-4.5H17V9h-4.5V10.5z M21.5,9H18v6h1.5v-2h2c0.8,0,1.5-0.7,1.5-1.5v-1C23,9.7,22.3,9,21.5,9z M21.5,11.5h-2v-1h2V11.5z"/>
</g>
<g id="Duotone" display="none">
	<g id="ui_x5F_spec_x5F_header_copy_2">
	</g>
	<path display="inline" d="M4.5,11h-2V9H1v6h1.5v-2.5h2V15H6V9H4.5V11z M7,10.5h1.5V15H10v-4.5h1.5V9H7V10.5z M12.5,10.5H14V15h1.5
		v-4.5H17V9h-4.5V10.5z M21.5,9H18v6h1.5v-2h2c0.8,0,1.5-0.7,1.5-1.5v-1C23,9.7,22.3,9,21.5,9z M21.5,11.5h-2v-1h2V11.5z"/>
</g>
<g id="Material" display="none">
	<g id="ui_x5F_spec_x5F_header_copy">
	</g>
	<path display="inline" d="M4.5,11h-2V9H1v6h1.5v-2.5h2V15H6V9H4.5V11z M7,10.5h1.5V15H10v-4.5h1.5V9H7V10.5z M12.5,10.5H14V15h1.5
		v-4.5H17V9h-4.5V10.5z M21.5,9H18v6h1.5v-2h2c0.8,0,1.5-0.7,1.5-1.5v-1C23,9.7,22.3,9,21.5,9z M21.5,11.5h-2v-1h2V11.5z"/>
</g>
</svg>
